src/components/LandingPage/images/ProductFeatureIcons/session-replay.svg

<svg xmlns="http://www.w3.org/2000/svg" width="30" height="19" fill="none" viewBox="0 0 30 19"><path fill="#0028C7" fill-rule="evenodd" d="M20.1683 8.61324L23.936 6.43842L27.7037 4.2636C28.458 3.82823 29.0693 4.18129 29.0693 5.05214L29.0689 9.40252L29.0684 13.7529C29.0684 14.6237 28.4569 14.9767 27.7028 14.5412L23.9354 12.3657L20.1681 10.1901C19.4139 9.75462 19.414 9.04862 20.1683 8.61324Z" clip-rule="evenodd"/><path fill="url(#paint0_linear)" fill-rule="evenodd" d="M20.1683 8.61324L23.936 6.43842L27.7037 4.2636C28.458 3.82823 29.0693 4.18129 29.0693 5.05214L29.0689 9.40252L29.0684 13.7529C29.0684 14.6237 28.4569 14.9767 27.7028 14.5412L23.9354 12.3657L20.1681 10.1901C19.4139 9.75462 19.414 9.04862 20.1683 8.61324Z" clip-rule="evenodd"/><path fill="#1D4AFF" fill-rule="evenodd" d="M2.52142 0.577637H22.4373C23.2279 0.577637 23.8688 1.21857 23.8688 2.00922V16.798C23.8688 17.5886 23.2279 18.2295 22.4373 18.2295H2.52142C1.73078 18.2295 1.08984 17.5886 1.08984 16.798V2.00922C1.08984 1.21857 1.73078 0.577637 2.52142 0.577637Z" clip-rule="evenodd"/><path fill="url(#paint1_linear)" fill-rule="evenodd" d="M2.52142 0.577637H22.4373C23.2279 0.577637 23.8688 1.21857 23.8688 2.00922V16.798C23.8688 17.5886 23.2279 18.2295 22.4373 18.2295H2.52142C1.73078 18.2295 1.08984 17.5886 1.08984 16.798V2.00922C1.08984 1.21857 1.73078 0.577637 2.52142 0.577637Z" clip-rule="evenodd"/><path fill="#B3C2FF" fill-rule="evenodd" d="M9.86738 12.5886L9.92148 9.3516L9.97559 6.11455C9.9864 5.46655 10.4457 5.21153 11.0015 5.54486L13.7778 7.21027L16.5541 8.87562C17.1099 9.209 17.1011 9.73429 16.5345 10.0489L13.7041 11.6206L10.8737 13.1923C10.3071 13.5069 9.85657 13.2366 9.86738 12.5886Z" clip-rule="evenodd"/><path fill="url(#paint2_linear)" fill-rule="evenodd" d="M9.86738 12.5886L9.92148 9.3516L9.97559 6.11455C9.9864 5.46655 10.4457 5.21153 11.0015 5.54486L13.7778 7.21027L16.5541 8.87562C17.1099 9.209 17.1011 9.73429 16.5345 10.0489L13.7041 11.6206L10.8737 13.1923C10.3071 13.5069 9.85657 13.2366 9.86738 12.5886Z" clip-rule="evenodd"/><path fill="#1839D9" fill-rule="evenodd" d="M3.21387 3.765C3.21387 2.73679 4.05198 1.90332 5.08583 1.90332C6.11969 1.90332 6.9578 2.73679 6.9578 3.765C6.9578 4.79316 6.11969 5.62668 5.08583 5.62668C4.05198 5.62668 3.21387 4.79316 3.21387 3.765Z" clip-rule="evenodd"/><path fill="url(#paint3_linear)" fill-rule="evenodd" d="M3.21387 3.765C3.21387 2.73679 4.05198 1.90332 5.08583 1.90332C6.11969 1.90332 6.9578 2.73679 6.9578 3.765C6.9578 4.79316 6.11969 5.62668 5.08583 5.62668C4.05198 5.62668 3.21387 4.79316 3.21387 3.765Z" clip-rule="evenodd"/><path fill="#1839D9" fill-rule="evenodd" d="M1.28973 4.8374C2.00201 4.8374 2.57945 5.41479 2.57945 6.12713V13.2104C2.57945 13.9226 2.00201 14.5001 1.28973 14.5001C0.577442 14.5001 0 13.9226 0 13.2104V6.12713C0 5.41479 0.577442 4.8374 1.28973 4.8374Z" clip-rule="evenodd"/><path fill="url(#paint4_linear)" fill-rule="evenodd" d="M1.28973 4.8374C2.00201 4.8374 2.57945 5.41479 2.57945 6.12713V13.2104C2.57945 13.9226 2.00201 14.5001 1.28973 14.5001C0.577442 14.5001 0 13.9226 0 13.2104V6.12713C0 5.41479 0.577442 4.8374 1.28973 4.8374Z" clip-rule="evenodd"/><path fill="#1D4AFF" fill-rule="evenodd" d="M28.8123 3.22168C29.1742 3.22168 29.4674 3.51499 29.4674 3.8768V14.9567C29.4674 15.3185 29.1742 15.6118 28.8123 15.6118C28.4505 15.6118 28.1572 15.3185 28.1572 14.9567V3.8768C28.1572 3.51499 28.4505 3.22168 28.8123 3.22168Z" clip-rule="evenodd"/><path fill="url(#paint5_linear)" fill-rule="evenodd" d="M28.8123 3.22168C29.1742 3.22168 29.4674 3.51499 29.4674 3.8768V14.9567C29.4674 15.3185 29.1742 15.6118 28.8123 15.6118C28.4505 15.6118 28.1572 15.3185 28.1572 14.9567V3.8768C28.1572 3.51499 28.4505 3.22168 28.8123 3.22168Z" clip-rule="evenodd"/><defs><linearGradient id="paint0_linear" x1="24.336" x2="24.336" y1="4.077" y2="14.728" gradientUnits="userSpaceOnUse"><stop stop-color="#5E7EFF"/><stop offset=".745" stop-color="#fff" stop-opacity="0"/></linearGradient><linearGradient id="paint1_linear" x1="12.479" x2="12.479" y1=".578" y2="18.23" gradientUnits="userSpaceOnUse"><stop stop-color="#80ABFF"/><stop offset=".885" stop-color="#fff" stop-opacity="0"/></linearGradient><linearGradient id="paint2_linear" x1="13.416" x2="13.416" y1="5.398" y2="13.324" gradientUnits="userSpaceOnUse"><stop stop-color="#fff"/><stop offset="1" stop-color="#fff" stop-opacity="0"/></linearGradient><linearGradient id="paint3_linear" x1="5.086" x2="5.086" y1="1.903" y2="5.627" gradientUnits="userSpaceOnUse"><stop stop-color="#6781FF"/><stop offset="1" stop-color="#fff" stop-opacity="0"/></linearGradient><linearGradient id="paint4_linear" x1="1.29" x2="1.29" y1="4.837" y2="14.5" gradientUnits="userSpaceOnUse"><stop stop-color="#738BFF"/><stop offset="1" stop-color="#fff" stop-opacity="0"/></linearGradient><linearGradient id="paint5_linear" x1="28.812" x2="28.812" y1="3.222" y2="15.612" gradientUnits="userSpaceOnUse"><stop stop-color="#839BFF"/><stop offset="1" stop-color="#fff" stop-opacity="0"/></linearGradient></defs></svg>

<svg fill="none" viewBox="0 0 30 19"><path fill="#0028C7" fill-rule="evenodd" d="M20.168 8.613l3.768-2.175 3.768-2.174c.754-.436 1.365-.083 1.365.788v8.7c0 .872-.612 1.225-1.366.79l-3.768-2.176-3.767-2.176c-.754-.435-.754-1.141 0-1.577z" clip-rule="evenodd"/><path fill="url(#paint0_linear)" fill-rule="evenodd" d="M20.168 8.613l3.768-2.175 3.768-2.174c.754-.436 1.365-.083 1.365.788v8.7c0 .872-.612 1.225-1.366.79l-3.768-2.176-3.767-2.176c-.754-.435-.754-1.141 0-1.577z" clip-rule="evenodd"/><path fill="#1D4AFF" fill-rule="evenodd" d="M2.521.578h19.916c.79 0 1.432.64 1.432 1.431v14.789c0 .79-.641 1.432-1.432 1.432H2.521c-.79 0-1.431-.641-1.431-1.432V2.009c0-.79.64-1.431 1.431-1.431z" clip-rule="evenodd"/><path fill="url(#paint1_linear)" fill-rule="evenodd" d="M2.521.578h19.916c.79 0 1.432.64 1.432 1.431v14.789c0 .79-.641 1.432-1.432 1.432H2.521c-.79 0-1.431-.641-1.431-1.432V2.009c0-.79.64-1.431 1.431-1.431z" clip-rule="evenodd"/><path fill="#B3C2FF" fill-rule="evenodd" d="M9.867 12.589l.054-3.237.055-3.237c.01-.648.47-.903 1.025-.57l2.777 1.665 2.776 1.666c.556.333.547.858-.02 1.173l-2.83 1.572-2.83 1.571c-.567.315-1.017.045-1.007-.603z" clip-rule="evenodd"/><path fill="url(#paint2_linear)" fill-rule="evenodd" d="M9.867 12.589l.054-3.237.055-3.237c.01-.648.47-.903 1.025-.57l2.777 1.665 2.776 1.666c.556.333.547.858-.02 1.173l-2.83 1.572-2.83 1.571c-.567.315-1.017.045-1.007-.603z" clip-rule="evenodd"/><path fill="#1839D9" fill-rule="evenodd" d="M3.214 3.765c0-1.028.838-1.862 1.872-1.862 1.034 0 1.872.834 1.872 1.862a1.867 1.867 0 01-1.872 1.862 1.867 1.867 0 01-1.872-1.862z" clip-rule="evenodd"/><path fill="url(#paint3_linear)" fill-rule="evenodd" d="M3.214 3.765c0-1.028.838-1.862 1.872-1.862 1.034 0 1.872.834 1.872 1.862a1.867 1.867 0 01-1.872 1.862 1.867 1.867 0 01-1.872-1.862z" clip-rule="evenodd"/><path fill="#1839D9" fill-rule="evenodd" d="M1.29 4.837c.712 0 1.29.578 1.29 1.29v7.083a1.29 1.29 0 01-2.58 0V6.127c0-.712.577-1.29 1.29-1.29z" clip-rule="evenodd"/><path fill="url(#paint4_linear)" fill-rule="evenodd" d="M1.29 4.837c.712 0 1.29.578 1.29 1.29v7.083a1.29 1.29 0 01-2.58 0V6.127c0-.712.577-1.29 1.29-1.29z" clip-rule="evenodd"/><path fill="#1D4AFF" fill-rule="evenodd" d="M28.812 3.222c.362 0 .655.293.655.655v11.08a.655.655 0 11-1.31 0V3.877c0-.362.294-.655.655-.655z" clip-rule="evenodd"/><path fill="url(#paint5_linear)" fill-rule="evenodd" d="M28.812 3.222c.362 0 .655.293.655.655v11.08a.655.655 0 11-1.31 0V3.877c0-.362.294-.655.655-.655z" clip-rule="evenodd"/><defs><linearGradient id="paint0_linear" x1="24.336" x2="24.336" y1="4.077" y2="14.728" gradientUnits="userSpaceOnUse"><stop stop-color="#5E7EFF"/><stop offset=".745" stop-color="#fff" stop-opacity="0"/></linearGradient><linearGradient id="paint1_linear" x1="12.479" x2="12.479" y1=".578" y2="18.23" gradientUnits="userSpaceOnUse"><stop stop-color="#80ABFF"/><stop offset=".885" stop-color="#fff" stop-opacity="0"/></linearGradient><linearGradient id="paint2_linear" x1="13.416" x2="13.416" y1="5.398" y2="13.324" gradientUnits="userSpaceOnUse"><stop stop-color="#fff"/><stop offset="1" stop-color="#fff" stop-opacity="0"/></linearGradient><linearGradient id="paint3_linear" x1="5.086" x2="5.086" y1="1.903" y2="5.627" gradientUnits="userSpaceOnUse"><stop stop-color="#6781FF"/><stop offset="1" stop-color="#fff" stop-opacity="0"/></linearGradient><linearGradient id="paint4_linear" x1="1.29" x2="1.29" y1="4.837" y2="14.5" gradientUnits="userSpaceOnUse"><stop stop-color="#738BFF"/><stop offset="1" stop-color="#fff" stop-opacity="0"/></linearGradient><linearGradient id="paint5_linear" x1="28.812" x2="28.812" y1="3.222" y2="15.612" gradientUnits="userSpaceOnUse"><stop stop-color="#839BFF"/><stop offset="1" stop-color="#fff" stop-opacity="0"/></linearGradient></defs></svg>
